www/assets/icons/work.svg

<svg xmlns="http://www.w3.org/2000/svg" width="24" height="24" viewBox="0 0 24 24" fill='currentColor'><path d="M20 6.5h-4v-2c0-1.11-.89-2-2-2h-4c-1.11 0-2 .89-2 2v2H4c-1.11 0-1.99.89-1.99 2L2 19.5c0 1.11.89 2 2 2h16c1.11 0 2-.89 2-2v-11c0-1.11-.89-2-2-2m-6 0h-4v-2h4z"/></svg>

<svg width="24" height="24" viewBox="0 0 24 24" xmlns="http://www.w3.org/2000/svg" fill='currentColor'><path d="M20 6.5H16V4.5C16 3.39 15.11 2.5 14 2.5H10C8.89 2.5 8 3.39 8 4.5V6.5H4C2.89 6.5 2.01 7.39 2.01 8.5L2 19.5C2 20.61 2.89 21.5 4 21.5H20C21.11 21.5 22 20.61 22 19.5V8.5C22 7.39 21.11 6.5 20 6.5ZM14 6.5H10V4.5H14V6.5Z"/></svg>
